X: 872
T: The king of the clans
C: anon.
O: Ireland
B: Francis O'Neill: "The Dance Music of Ireland" (1907) no. 788
R: Reel
Z: Transcribed by Frank Nordberg - http://www.musicaviva.com
F: http://www.musicaviva.com/abc/tunes/ireland/oneill-1001/oneill-1001-078
8.abc
M: C|
L: 1/8
K: G
B|d2(GA) Bdg(e|de)d(B AG)EG|D(GBG) dGBG|ceg(e dc)Bc|d(GBd) g(dBd)|gdb(g-
ag)ef|ga (3(gfe) dBg(e|dBA)c BGG||
f|(g2b)g (3(efg) d(f|gd)B(G AG)EG|D(GBG) dGBG|ceg(e dc)Bd|g2(bg) edg(e|dB
)GB (AG)EG|D(GBd) ged(e|d)BAc BGG|]
W:
W:
W: From Musica Viva - http://www.musicaviva.com
W: the Internet center for free sheet music downloads.


